X: 1
T: Masters in This Hall (strathspey)
T: the Female Saylor
O: Playford 1706
R: strathspey
Z: 2010 by John Chambers <jc:trillian.mit.edu>
N: Playford Ball (in jig time)
N: Barnes
N: Recu\"eil de Contredances (Feuillet)
M: C
L: 1/16
K: Dm
|: "Dm"DA3 A3G  F4 "Gm"G4 |  "A7"A3G F3E F3E D3^C \
|  "Dm"DA3 A3G  F4 "Gm"G4 |  "A7"A3G FE3  "Dm"D8 :|
|: "A7"f3e d^c3 "Dm"d4     A4 |  "A7"f3e d^c3 "D7"d4     A3=c \
|  "Gm"B3G "A7"A3E "Dm"FD3   F3G |1 "A7"AA3 ^c3c "Dm"d4 d3e :|2 "A7"AA3 F3E "Dm"D8 |]
